X:5
T:The February March
C:Andy Hornby 1998
Q:1/4=160
I:abc2nwc
M:6/8
L:1/8
K:G
D|B3/2c/2B AGF|G3D3|E3/2F/2G D2G|E/2F/2GB A2D|
B3/2c/2B AGF|G3/2A/2G FED|E/2F/2GE F/2G/2AF|G3G2:|
|:B/2c/2|d3/2c/2B c3/2d/2e|d3D2c|B3/2c/2d d3/2c/2B|A3A2d|
d3/2c/2B cBA|B/2c/2dB G2D|E/2F/2GE F/2G/2AF|G3G2:|
|:D|G2D A2D|B2D c2A|B/2c/2dB BAG|
A3 DEF|GDG ADA|BGB cAc|B/2c/2dB cAF|G3G2:|
%%vskip 2.5cm
